public/icons/video-border1.svg

<svg width="827" height="464" viewBox="0 0 827 464" fill="none" xmlns="http://www.w3.org/2000/svg">

<mask id="path-1-inside-1_446_360" fill="white">
<path fill-rule="evenodd" clip-rule="evenodd" d="M793.183 0.000488281H34.5819L1.24148 33.2902L0.377686 32.4277V431.194L1.24148 430.332L34.7718 463.811L34.5822 464H793.183L792.993 463.811L826.523 430.332V33.2902L793.183 0.000488281Z"/>
</mask>
<path d="M793.183 0.000488281L793.89 -0.707157L793.597 -0.999512H793.183V0.000488281ZM34.5819 0.000488281V-0.999512H34.1682L33.8754 -0.707157L34.5819 0.000488281ZM1.24148 33.2902L0.534913 33.9979L1.24148 34.7034L1.94805 33.9979L1.24148 33.2902ZM0.377686 32.4277L1.08425 31.7201L-0.622314 30.0161V32.4277H0.377686ZM0.377686 431.194H-0.622314V433.606L1.08426 431.902L0.377686 431.194ZM1.24148 430.332L1.94805 429.624L1.24148 428.919L0.53491 429.624L1.24148 430.332ZM34.7718 463.811L35.4784 464.519L36.1871 463.811L35.4784 463.103L34.7718 463.811ZM34.5822 464L33.8756 463.293L32.1654 465H34.5822V464ZM793.183 464V465H795.599L793.889 463.293L793.183 464ZM792.993 463.811L792.287 463.103L791.578 463.811L792.287 464.519L792.993 463.811ZM826.523 430.332L827.23 431.039L827.523 430.746V430.332H826.523ZM826.523 33.2902H827.523V32.8756L827.23 32.5826L826.523 33.2902ZM793.183 -0.999512H34.5819V1.00049H793.183V-0.999512ZM33.8754 -0.707157L0.534913 32.5826L1.94805 33.9979L35.2885 0.708133L33.8754 -0.707157ZM1.94805 32.5826L1.08425 31.7201L-0.328882 33.1354L0.534913 33.9979L1.94805 32.5826ZM-0.622314 32.4277V431.194H1.37769V32.4277H-0.622314ZM1.08426 431.902L1.94805 431.039L0.53491 429.624L-0.328885 430.487L1.08426 431.902ZM0.534913 431.039L34.0653 464.519L35.4784 463.103L1.94805 429.624L0.534913 431.039ZM34.0653 463.103L33.8756 463.293L35.2887 464.708L35.4784 464.519L34.0653 463.103ZM34.5822 465H793.183V463H34.5822V465ZM793.889 463.293L793.7 463.104L792.287 464.519L792.476 464.708L793.889 463.293ZM793.7 464.519L827.23 431.039L825.817 429.624L792.287 463.103L793.7 464.519ZM827.523 430.332V33.2902H825.523V430.332H827.523ZM827.23 32.5826L793.89 -0.707157L792.476 0.708133L825.817 33.9979L827.23 32.5826Z" fill="url(#paint0_linear_446_360)" mask="url(#path-1-inside-1_446_360)"/>

<defs>
<filter id="filter0_b_446_360" x="-3.62231" y="-3.99951" width="834.146" height="472" filterUnits="userSpaceOnUse" color-interpolation-filters="sRGB">
<feFlood flood-opacity="0" result="BackgroundImageFix"/>
<feGaussianBlur in="BackgroundImage" stdDeviation="2"/>
<feComposite in2="SourceAlpha" operator="in" result="effect1_backgroundBlur_446_360"/>
<feBlend mode="normal" in="SourceGraphic" in2="effect1_backgroundBlur_446_360" result="shape"/>
</filter>
<linearGradient id="paint0_linear_446_360" x1="413.451" y1="0.000488281" x2="413.451" y2="464" gradientUnits="userSpaceOnUse">
<stop stop-color="#11D9EB"/>
<stop offset="1" stop-color="#D533CE"/>
</linearGradient>
</defs>
</svg>

<svg width="827" height="464" fill="none" xmlns="http://www.w3.org/2000/svg"><mask id="b" fill="#fff"><path fill-rule="evenodd" clip-rule="evenodd" d="M793.183 0H34.582L1.242 33.29l-.864-.862v398.766l.863-.862 33.53 33.479-.189.189h758.601l-.19-.189 33.53-33.479V33.29L793.183 0z"/></mask><path d="m793.183 0 .707-.707-.293-.293h-.414v1zM34.582 0v-1h-.414l-.293.293.707.707zM1.242 33.29l-.707.708.706.705.707-.705-.707-.708zm-.864-.862.706-.708-1.706-1.704v2.412h1zm0 398.766h-1v2.412l1.706-1.704-.706-.708zm.863-.862.707-.708-.707-.705-.706.705.706.708zm33.53 33.479.707.708.71-.708-.71-.708-.706.708zm-.189.189-.706-.707-1.71 1.707h2.416v-1zm758.601 0v1h2.416l-1.71-1.707-.706.707zm-.19-.189-.706-.708-.709.708.709.708.706-.708zm33.53-33.479.707.707.293-.293v-.414h-1zm0-397.042h1v-.414l-.293-.293-.707.707zM793.183-1H34.582v2h758.601v-2zM33.875-.707.535 32.583l1.413 1.415L35.288.708 33.876-.707zM1.948 32.583l-.864-.863-1.413 1.415.864.863 1.413-1.415zm-2.57-.155v398.766h2V32.428h-2zm1.706 399.474.864-.863-1.413-1.415-.864.863 1.413 1.415zm-.55-.863 33.531 33.48 1.413-1.416-33.53-33.479-1.413 1.415zm33.531 32.064-.19.19 1.414 1.415.19-.189-1.414-1.416zm.517 1.897h758.601v-2h-758.6v2zm759.307-1.707-.189-.189-1.413 1.415.189.189 1.413-1.415zm-.189 1.226 33.53-33.48-1.413-1.415-33.53 33.479 1.413 1.416zm33.823-34.187V33.29h-2v397.042h2zm-.293-397.75L793.89-.707 792.476.709l33.341 33.29 1.413-1.415z" fill="url(#a)" mask="url(#b)"/><defs><linearGradient id="a" x1="413.451" y1="0" x2="413.451" y2="464" gradientUnits="userSpaceOnUse"><stop stop-color="#11D9EB"/><stop offset="1" stop-color="#D533CE"/></linearGradient></defs></svg>
